content/blogs/regnskap/hva-er-varelager/lageranalyse-oversikt.svg

<svg xmlns="http://www.w3.org/2000/svg" width="600" height="400" viewBox="0 0 600 400"><defs><linearGradient id="a" x1="0%" x2="100%" y1="0%" y2="0%"><stop offset="0%" style="stop-color:#1e3a8a;stop-opacity:1"/><stop offset="100%" style="stop-color:#3b82f6;stop-opacity:1"/></linearGradient></defs><path fill="#fff" d="M0 0h600v400H0z"/><path fill="url(#a)" d="M0 0h600v50H0z"/><text x="300" y="30" fill="#fff" font-family="Arial, sans-serif" font-size="18" font-weight="bold" text-anchor="middle">Lageranalyse og Prestasjonsmåling</text><rect width="180" height="140" x="30" y="70" fill="#fef3c7" stroke="#f59e0b" stroke-width="2" rx="8"/><text x="120" y="95" fill="#92400e" font-family="Arial, sans-serif" font-size="14" font-weight="bold" text-anchor="middle">FINANSIELLE NØKKELTALL</text><rect width="140" height="30" x="50" y="110" fill="#fffbeb" stroke="#fbbf24" rx="4"/><text x="120" y="125" fill="#92400e" font-family="Arial, sans-serif" font-size="11" font-weight="bold" text-anchor="middle">Lageromsetning</text><text x="120" y="137" fill="#374151" font-family="Arial, sans-serif" font-size="9" text-anchor="middle">Kostpris ÷ Gj.snitt lagerverdi</text><rect width="140" height="30" x="50" y="150" fill="#fffbeb" stroke="#fbbf24" rx="4"/><text x="120" y="165" fill="#92400e" font-family="Arial, sans-serif" font-size="11" font-weight="bold" text-anchor="middle">ROII</text><text x="120" y="177" fill="#374151" font-family="Arial, sans-serif" font-size="9" text-anchor="middle">Bruttofortj. ÷ Lagerinvestering</text><text x="40" y="200" fill="#92400e" font-family="Arial, sans-serif" font-size="10" font-weight="bold">Målsettinger:</text><text x="40" y="213" fill="#374151" font-family="Arial, sans-serif" font-size="9">• Omsetning: 6-12 ganger</text><text x="40" y="225" fill="#374151" font-family="Arial, sans-serif" font-size="9">• ROII: &gt;200%</text><rect width="180" height="140" x="230" y="70" fill="#dcfce7" stroke="#16a34a" stroke-width="2" rx="8"/><text x="320" y="95" fill="#15803d" font-family="Arial, sans-serif" font-size="14" font-weight="bold" text-anchor="middle">OPERASJONELLE KPIer</text><rect width="140" height="25" x="250" y="110" fill="#f0fdf4" stroke="#34d399" rx="4"/><text x="320" y="125" fill="#15803d" font-family="Arial, sans-serif" font-size="11" font-weight="bold" text-anchor="middle">Fill Rate: 97.5%</text><rect width="120" height="4" x="260" y="128" fill="#e5e7eb" rx="2"/><rect width="117" height="4" x="260" y="128" fill="#22c55e" rx="2"/><rect width="140" height="25" x="250" y="140" fill="#f0fdf4" stroke="#34d399" rx="4"/><text x="320" y="155" fill="#15803d" font-family="Arial, sans-serif" font-size="11" font-weight="bold" text-anchor="middle">Nøyaktighet: 99.2%</text><rect width="120" height="4" x="260" y="158" fill="#e5e7eb" rx="2"/><rect width="119" height="4" x="260" y="158" fill="#22c55e" rx="2"/><rect width="140" height="25" x="250" y="170" fill="#f0fdf4" stroke="#34d399" rx="4"/><text x="320" y="185" fill="#15803d" font-family="Arial, sans-serif" font-size="11" font-weight="bold" text-anchor="middle">Lagernøyaktighet: 98.8%</text><rect width="120" height="4" x="260" y="188" fill="#e5e7eb" rx="2"/><rect width="118" height="4" x="260" y="188" fill="#f59e0b" rx="2"/><text x="240" y="210" fill="#15803d" font-family="Arial, sans-serif" font-size="10" font-weight="bold">Benchmarks oppnådd</text><rect width="140" height="140" x="430" y="70" fill="#fef2f2" stroke="#ef4444" stroke-width="2" rx="8"/><text x="500" y="95" fill="#dc2626" font-family="Arial, sans-serif" font-size="14" font-weight="bold" text-anchor="middle">KOSTNADSANALYSE</text><circle cx="500" cy="140" r="30" fill="#ef4444"/><path fill="#f59e0b" d="M500 140v-30a30 30 0 0 1 21 9Z"/><path fill="#22c55e" d="m500 140 21-21a30 30 0 0 1 0 42Z"/><path fill="#3b82f6" d="m500 140 21 21a30 30 0 0 1-42 0Z"/><text x="440" y="185" fill="#dc2626" font-family="Arial, sans-serif" font-size="10" font-weight="bold">Total Cost Breakdown:</text><text x="440" y="198" fill="#374151" font-family="Arial, sans-serif" font-size="8">• Anskaffelse (65%)</text><text x="440" y="208" fill="#374151" font-family="Arial, sans-serif" font-size="8">• Lagerhold (20%)</text><text x="440" y="218" fill="#374151" font-family="Arial, sans-serif" font-size="8">• Håndtering (10%)</text><text x="440" y="228" fill="#374151" font-family="Arial, sans-serif" font-size="8">• Risiko (5%)</text><rect width="180" height="140" x="30" y="230" fill="#e0e7ff" stroke="#6366f1" stroke-width="2" rx="8"/><text x="120" y="255" fill="#4338ca" font-family="Arial, sans-serif" font-size="14" font-weight="bold" text-anchor="middle">ABC-ANALYSE</text><rect width="140" height="60" x="50" y="270" fill="#fff" stroke="#6366f1" rx="4"/><path fill="#ef4444" d="M60 280h40v15H60z"/><text x="80" y="292" fill="#fff" font-family="Arial, sans-serif" font-size="9" font-weight="bold" text-anchor="middle">A (20%)</text><path fill="#f59e0b" d="M60 300h25v15H60z"/><text x="72" y="312" fill="#fff" font-family="Arial, sans-serif" font-size="9" font-weight="bold" text-anchor="middle">B (30%)</text><path fill="#22c55e" d="M60 320h10v10H60z"/><text x="65" y="330" fill="#fff" font-family="Arial, sans-serif" font-size="8" text-anchor="middle">C</text><text x="80" y="330" fill="#374151" font-family="Arial, sans-serif" font-size="8">(50%)</text><text x="110" y="285" fill="#374151" font-family="Arial, sans-serif" font-size="9">80% verdi</text><text x="110" y="305" fill="#374151" font-family="Arial, sans-serif" font-size="9">15% verdi</text><text x="110" y="325" fill="#374151" font-family="Arial, sans-serif" font-size="9">5% verdi</text><text x="40" y="350" fill="#4338ca" font-family="Arial, sans-serif" font-size="10" font-weight="bold">Optimal fordeling oppnådd</text><text x="40" y="363" fill="#374151" font-family="Arial, sans-serif" font-size="9">Fokus på A-varer intensiveres</text><rect width="180" height="140" x="230" y="230" fill="#f0fdf4" stroke="#10b981" stroke-width="2" rx="8"/><text x="320" y="255" fill="#047857" font-family="Arial, sans-serif" font-size="14" font-weight="bold" text-anchor="middle">TRENDANALYSE</text><rect width="140" height="60" x="250" y="270" fill="#fff" stroke="#10b981" rx="4"/><path fill="none" stroke="#22c55e" stroke-width="2" d="m260 320 20-5 20-5 20-5 20-5 20-5 20-5"/><path fill="none" stroke="#3b82f6" stroke-width="2" d="m260 315 20-3 20-4 20-2 20-2 20-2 20-2"/><circle cx="260" cy="320" r="2" fill="#22c55e"/><circle cx="300" cy="310" r="2" fill="#22c55e"/><circle cx="340" cy="300" r="2" fill="#22c55e"/><circle cx="380" cy="290" r="2" fill="#22c55e"/><circle cx="260" cy="315" r="2" fill="#3b82f6"/><circle cx="300" cy="308" r="2" fill="#3b82f6"/><circle cx="340" cy="304" r="2" fill="#3b82f6"/><circle cx="380" cy="300" r="2" fill="#3b82f6"/><text x="240" y="350" fill="#047857" font-family="Arial, sans-serif" font-size="10" font-weight="bold">Positive trender:</text><text x="240" y="363" fill="#374151" font-family="Arial, sans-serif" font-size="9">Lageromsetning øker jevnt</text><rect width="140" height="140" x="430" y="230" fill="#f3e8ff" stroke="#a855f7" stroke-width="2" rx="8"/><text x="500" y="255" fill="#7c3aed" font-family="Arial, sans-serif" font-size="14" font-weight="bold" text-anchor="middle">PREDIKTIVE ANALYSER</text><circle cx="500" cy="290" r="20" fill="#a855f7"/><path fill="none" stroke="#fff" stroke-width="2" d="M492 287q8-5 16 0M492 293q8 5 16 0"/><circle cx="496" cy="287" r="2" fill="#fff"/><circle cx="504" cy="293" r="2" fill="#fff"/><text x="440" y="325" fill="#7c3aed" font-family="Arial, sans-serif" font-size="10" font-weight="bold">AI-baserte prognoser:</text><text x="440" y="338" fill="#374151" font-family="Arial, sans-serif" font-size="9">• Etterspørselsprognose: 94% nøyakt.</text><text x="440" y="350" fill="#374151" font-family="Arial, sans-serif" font-size="9">• Optimale bestillingsmengder</text><text x="440" y="362" fill="#374151" font-family="Arial, sans-serif" font-size="9">• Risikoevaluering</text></svg>

<svg width="600" height="400" viewBox="0 0 600 400" xmlns="http://www.w3.org/2000/svg">
  <defs>
    <linearGradient id="analysisGrad" x1="0%" y1="0%" x2="100%" y2="0%">
      <stop offset="0%" style="stop-color:#1e3a8a;stop-opacity:1" />
      <stop offset="100%" style="stop-color:#3b82f6;stop-opacity:1" />
    </linearGradient>
  </defs>
  

  <rect width="600" height="400" fill="#ffffff"/>
  

  <rect x="0" y="0" width="600" height="50" fill="url(#analysisGrad)"/>
  <text x="300" y="30" text-anchor="middle" fill="white" font-family="Arial, sans-serif" font-size="18" font-weight="bold">Lageranalyse og Prestasjonsmåling</text>
  

  <rect x="30" y="70" width="180" height="140" fill="#fef3c7" stroke="#f59e0b" stroke-width="2" rx="8"/>
  <text x="120" y="95" text-anchor="middle" fill="#92400e" font-family="Arial, sans-serif" font-size="14" font-weight="bold">FINANSIELLE NØKKELTALL</text>
  

  <rect x="50" y="110" width="140" height="30" fill="#fffbeb" stroke="#fbbf24" rx="4"/>
  <text x="120" y="125" text-anchor="middle" fill="#92400e" font-family="Arial, sans-serif" font-size="11" font-weight="bold">Lageromsetning</text>
  <text x="120" y="137" text-anchor="middle" fill="#374151" font-family="Arial, sans-serif" font-size="9">Kostpris ÷ Gj.snitt lagerverdi</text>
  

  <rect x="50" y="150" width="140" height="30" fill="#fffbeb" stroke="#fbbf24" rx="4"/>
  <text x="120" y="165" text-anchor="middle" fill="#92400e" font-family="Arial, sans-serif" font-size="11" font-weight="bold">ROII</text>
  <text x="120" y="177" text-anchor="middle" fill="#374151" font-family="Arial, sans-serif" font-size="9">Bruttofortj. ÷ Lagerinvestering</text>
  
  <text x="40" y="200" fill="#92400e" font-family="Arial, sans-serif" font-size="10" font-weight="bold">Målsettinger:</text>
  <text x="40" y="213" fill="#374151" font-family="Arial, sans-serif" font-size="9">• Omsetning: 6-12 ganger</text>
  <text x="40" y="225" fill="#374151" font-family="Arial, sans-serif" font-size="9">• ROII: >200%</text>
  

  <rect x="230" y="70" width="180" height="140" fill="#dcfce7" stroke="#16a34a" stroke-width="2" rx="8"/>
  <text x="320" y="95" text-anchor="middle" fill="#15803d" font-family="Arial, sans-serif" font-size="14" font-weight="bold">OPERASJONELLE KPIer</text>
  

  <rect x="250" y="110" width="140" height="25" fill="#f0fdf4" stroke="#34d399" rx="4"/>
  <text x="320" y="125" text-anchor="middle" fill="#15803d" font-family="Arial, sans-serif" font-size="11" font-weight="bold">Fill Rate: 97.5%</text>
  <rect x="260" y="128" width="120" height="4" fill="#e5e7eb" rx="2"/>
  <rect x="260" y="128" width="117" height="4" fill="#22c55e" rx="2"/>
  

  <rect x="250" y="140" width="140" height="25" fill="#f0fdf4" stroke="#34d399" rx="4"/>
  <text x="320" y="155" text-anchor="middle" fill="#15803d" font-family="Arial, sans-serif" font-size="11" font-weight="bold">Nøyaktighet: 99.2%</text>
  <rect x="260" y="158" width="120" height="4" fill="#e5e7eb" rx="2"/>
  <rect x="260" y="158" width="119" height="4" fill="#22c55e" rx="2"/>
  

  <rect x="250" y="170" width="140" height="25" fill="#f0fdf4" stroke="#34d399" rx="4"/>
  <text x="320" y="185" text-anchor="middle" fill="#15803d" font-family="Arial, sans-serif" font-size="11" font-weight="bold">Lagernøyaktighet: 98.8%</text>
  <rect x="260" y="188" width="120" height="4" fill="#e5e7eb" rx="2"/>
  <rect x="260" y="188" width="118" height="4" fill="#f59e0b" rx="2"/>
  
  <text x="240" y="210" fill="#15803d" font-family="Arial, sans-serif" font-size="10" font-weight="bold">Benchmarks oppnådd</text>
  

  <rect x="430" y="70" width="140" height="140" fill="#fef2f2" stroke="#ef4444" stroke-width="2" rx="8"/>
  <text x="500" y="95" text-anchor="middle" fill="#dc2626" font-family="Arial, sans-serif" font-size="14" font-weight="bold">KOSTNADSANALYSE</text>
  

  <circle cx="500" cy="140" r="30" fill="#ef4444"/>
  <path d="M 500 140 L 500 110 A 30 30 0 0 1 521 119 Z" fill="#f59e0b"/>
  <path d="M 500 140 L 521 119 A 30 30 0 0 1 521 161 Z" fill="#22c55e"/>
  <path d="M 500 140 L 521 161 A 30 30 0 0 1 479 161 Z" fill="#3b82f6"/>
  
  <text x="440" y="185" fill="#dc2626" font-family="Arial, sans-serif" font-size="10" font-weight="bold">Total Cost Breakdown:</text>
  <text x="440" y="198" fill="#374151" font-family="Arial, sans-serif" font-size="8">• Anskaffelse (65%)</text>
  <text x="440" y="208" fill="#374151" font-family="Arial, sans-serif" font-size="8">• Lagerhold (20%)</text>
  <text x="440" y="218" fill="#374151" font-family="Arial, sans-serif" font-size="8">• Håndtering (10%)</text>
  <text x="440" y="228" fill="#374151" font-family="Arial, sans-serif" font-size="8">• Risiko (5%)</text>
  

  <rect x="30" y="230" width="180" height="140" fill="#e0e7ff" stroke="#6366f1" stroke-width="2" rx="8"/>
  <text x="120" y="255" text-anchor="middle" fill="#4338ca" font-family="Arial, sans-serif" font-size="14" font-weight="bold">ABC-ANALYSE</text>
  

  <rect x="50" y="270" width="140" height="60" fill="white" stroke="#6366f1" rx="4"/>
  

  <rect x="60" y="280" width="40" height="15" fill="#ef4444"/>
  <text x="80" y="292" text-anchor="middle" fill="white" font-family="Arial, sans-serif" font-size="9" font-weight="bold">A (20%)</text>
  

  <rect x="60" y="300" width="25" height="15" fill="#f59e0b"/>
  <text x="72" y="312" text-anchor="middle" fill="white" font-family="Arial, sans-serif" font-size="9" font-weight="bold">B (30%)</text>
  

  <rect x="60" y="320" width="10" height="10" fill="#22c55e"/>
  <text x="65" y="330" text-anchor="middle" fill="white" font-family="Arial, sans-serif" font-size="8">C</text>
  <text x="80" y="330" fill="#374151" font-family="Arial, sans-serif" font-size="8">(50%)</text>
  
  <text x="110" y="285" fill="#374151" font-family="Arial, sans-serif" font-size="9">80% verdi</text>
  <text x="110" y="305" fill="#374151" font-family="Arial, sans-serif" font-size="9">15% verdi</text>
  <text x="110" y="325" fill="#374151" font-family="Arial, sans-serif" font-size="9">5% verdi</text>
  
  <text x="40" y="350" fill="#4338ca" font-family="Arial, sans-serif" font-size="10" font-weight="bold">Optimal fordeling oppnådd</text>
  <text x="40" y="363" fill="#374151" font-family="Arial, sans-serif" font-size="9">Fokus på A-varer intensiveres</text>
  

  <rect x="230" y="230" width="180" height="140" fill="#f0fdf4" stroke="#10b981" stroke-width="2" rx="8"/>
  <text x="320" y="255" text-anchor="middle" fill="#047857" font-family="Arial, sans-serif" font-size="14" font-weight="bold">TRENDANALYSE</text>
  

  <rect x="250" y="270" width="140" height="60" fill="white" stroke="#10b981" rx="4"/>
  

  <path d="M260 320 L280 315 L300 310 L320 305 L340 300 L360 295 L380 290" stroke="#22c55e" stroke-width="2" fill="none"/>
  <path d="M260 315 L280 312 L300 308 L320 306 L340 304 L360 302 L380 300" stroke="#3b82f6" stroke-width="2" fill="none"/>
  

  <circle cx="260" cy="320" r="2" fill="#22c55e"/>
  <circle cx="300" cy="310" r="2" fill="#22c55e"/>
  <circle cx="340" cy="300" r="2" fill="#22c55e"/>
  <circle cx="380" cy="290" r="2" fill="#22c55e"/>
  
  <circle cx="260" cy="315" r="2" fill="#3b82f6"/>
  <circle cx="300" cy="308" r="2" fill="#3b82f6"/>
  <circle cx="340" cy="304" r="2" fill="#3b82f6"/>
  <circle cx="380" cy="300" r="2" fill="#3b82f6"/>
  
  <text x="240" y="350" fill="#047857" font-family="Arial, sans-serif" font-size="10" font-weight="bold">Positive trender:</text>
  <text x="240" y="363" fill="#374151" font-family="Arial, sans-serif" font-size="9">Lageromsetning øker jevnt</text>
  

  <rect x="430" y="230" width="140" height="140" fill="#f3e8ff" stroke="#a855f7" stroke-width="2" rx="8"/>
  <text x="500" y="255" text-anchor="middle" fill="#7c3aed" font-family="Arial, sans-serif" font-size="14" font-weight="bold">PREDIKTIVE ANALYSER</text>
  

  <circle cx="500" cy="290" r="20" fill="#a855f7"/>
  <path d="M492 287 Q500 282 508 287" stroke="white" stroke-width="2" fill="none"/>
  <path d="M492 293 Q500 298 508 293" stroke="white" stroke-width="2" fill="none"/>
  <circle cx="496" cy="287" r="2" fill="white"/>
  <circle cx="504" cy="293" r="2" fill="white"/>
  
  <text x="440" y="325" fill="#7c3aed" font-family="Arial, sans-serif" font-size="10" font-weight="bold">AI-baserte prognoser:</text>
  <text x="440" y="338" fill="#374151" font-family="Arial, sans-serif" font-size="9">• Etterspørselsprognose: 94% nøyakt.</text>
  <text x="440" y="350" fill="#374151" font-family="Arial, sans-serif" font-size="9">• Optimale bestillingsmengder</text>
  <text x="440" y="362" fill="#374151" font-family="Arial, sans-serif" font-size="9">• Risikoevaluering</text>
</svg>
